X:1
T:Title
%%score { ( 1 4 ) | ( 2 3 ) }
L:1/8
Q:1/4=126
M:6/4
K:Bb
V:1 treble nm="Grand Piano"
V:4 treble 
V:2 bass 
V:3 bass 
V:1
 [DF]3 [_D=E] [=DF]2 [DFB]4 [B,DF]2 | [B,FA]4 G2 G6 | E3 D E2 A4 G2 | [EG]4 [DF]2 [DF]6 | %4
w: D.~B.~Towner * * * *||||
 [DF]3 [_D=E] [=DF]2 [Fd]4 [Fc]2 | c2 B2 G2 B6 | [=Ec]3 [Ed] [Ec]2 [Ec]4 [EG]2 | %7
w: |||
 [Gc]4 [CG]2 [Ec]6 | [DB]3 [DA] [DG]2 [DB]4 [DG]2 | B4 A2 A6 | c3 B A2 c4 A2 | [Ec]4 [DB]2 [DB]6 | %12
w: |||||
 d3 c B2 d4 B2 | d4 c2 c6 | [G=e]3 [Gd] [Gc]2 [Ge]4 [Bc]2 | [Af]4 F2 F6 | B2 B2 B2 A2 A2 A2 | %17
w: |||||
 G2 G2 G2 D2 ^F2 F2 | [B,G]3 ^F G2 A4 [DB]2 | z4 E2- E6 | c2 c2 c2 B2 B2 B2 | A2 A2 A2 E2 E2 E2 | %22
w: |||||
 [CEFA]3 _A =A2 [DFB]4 c2 | z2 F4- F4 z2 | d2 d2 d2 c2 c2 c2 | B2 B2 B2 ^F2 F2 F2 | %26
w: ||||
 G3 A B2 [EGc]4 _d2 | z4 d2- d6 | [EGc]3 [GB] [Gc]2 [F,EF]4 A2 | [B,-B]3 [B,A] B2 [Bd]4 B2 | %30
w: ||||
[M:7/4] c3 =B c2 f6 =A2 |[M:6/4] [FBd]2 [FBd]2 [FBd]2 [FBd]6 |] %32
w: ||
V:2
 [B,,B,]3 [B,,B,] [B,,B,]2 B,,4 B,,2 | E,4 [E,B,E]2 [E,B,E]6 | %2
 [F,A,C]3 [F,_A,=B,] [F,=A,C]2 [F,CE]4 [F,A,E]2 | [B,,B,]4 [B,,B,]2 [B,,B,]6 | %4
 [B,,B,]3 [B,,B,] [B,,B,]2 [B,,B,]4 [D,_A,]2 | [E,G,E]4 [E,B,E]2 [E,G,E]6 | %6
 [C,G,]3 [C,G,] [C,G,]2 [C,G,]4 [C,B,]2 | [=E,B,]4 [G,B,]2 [F,A,]6 | %8
 [B,,B,]3 [B,,B,] [B,,B,]2 [B,,F,]4 [B,,B,]2 | [F,CE]4 [F,CE]2 [F,CE]6 | %10
 [F,CE]3 [F,CE] [F,CE]2 [F,A,E]4 [F,E]2 | [B,,F,]4 [B,,F,]2 [B,,F,]6 | %12
 [B,F]3 [B,E] [B,D]2 [B,F]4 [B,DF]2 | [F,B,F]4 [F,A,F]2 [F,A,F]6 | %14
 [C,B,]3 [C,B,] [C,B,]2 [C,B,]4 [G,C]2 | [F,C]4 [F,A,]2 [F,A,]6 | %16
 z2[K:treble] [DF]2 [DF]2[K:bass] z2[K:treble] [CEF]2 [CEF]2 | z2 [B,D]2 [B,D]2 z2 [CD]2 [CD]2 | %18
 z2 z A, B,2 [C,F,C]4 [B,,F,]2 | z2 [A,C]2 [A,C]2 A,6 | %20
 z2[K:treble] [EFA]2 [EFA]2[K:bass] z2[K:treble] [DF]2 [DF]2 | %21
 z2[K:treble] [CEF]2 [CEF]2[K:bass] z2 [A,C]2 [A,C]2 | %22
 z2 z[K:treble] [CEF] [CF]2[K:bass] [F,,F,]4 E2 | z2 [B,D]2 B,2- B,4 z2 | %24
 z2[K:treble] [FB]2 [FB]2[K:bass] z2[K:treble] [EFA]2 [EFA]2 | %25
 z2[K:treble] [DG]2 [DG]2[K:bass] z2 [CE]2 [CE]2 | z2 B,2 [EG]2 [E,,E,]4[K:treble] [EGB]2 | %27
 z2 [^FA]2 [FA]2 F6 | z2 z E E2 F,,4 E2 | z2[K:treble] _D2 [=DF]2[K:bass] [B,,B,]4 [DF]2 | %30
[M:7/4] z2 D2 [EA]2 [Ac]6[K:treble] F2 |[M:6/4] B,2[K:bass] F,2 D,2 B,,6 |] %32
V:3
 x12 | x12 | x12 | x12 | x12 | x12 | x12 | x12 | x12 | x12 | x12 | x12 | x12 | x12 | x12 | x12 | %16
 .[B,,B,]6[K:treble][K:bass] .[F,,F,]6[K:treble] | .[G,,G,]6 .[D,,D,]6 | .[G,,G,]6 z6 | [F,,F,]12 | %20
 .[F,,F,]6[K:treble][K:bass] .[F,,F,]6[K:treble] | .[F,,F,]6[K:treble][K:bass] .[F,,F,]6 | %22
 .[F,,F,]6[K:treble][K:bass] z6 | [B,,,B,,]12 | .[B,,B,]6[K:treble][K:bass] .[F,,F,]6[K:treble] | %25
 .[G,,G,]6[K:treble][K:bass] .[D,,D,]6 | .[E,,E,]6 z6[K:treble] | [D,,D,]12 | .[E,,E,]6 z6 | %29
 .B,,6[K:treble][K:bass] z6 |[M:7/4] [F,,F,]2- [F,,F,]2- [F,,F,]2- [F,,F,]6[K:treble] z2 | %31
[M:6/4] x2[K:bass] x10 |] %32
V:4
 x12 | x12 | x12 | x12 | x12 | x12 | x12 | x12 | x12 | x12 | x12 | x12 | x12 | x12 | x12 | x12 | %16
 x12 | x12 | x12 | E2 .E4 C6 | x12 | x12 | x12 | .F4 D2- D4 z2 | x12 | x12 | [B,F]2 .F4 z6 | %27
 d2 .d4 A6 | x12 | [DF]2 .=E4 z6 |[M:7/4] [EA]2 _A2 z2 z2 z2 z4 |[M:6/4] x12 |] %32

